svg/set/VOW/T.svg

<?xml version="1.0" encoding="UTF-8" standalone="no"?>
<svg
   width="648.72699"
   height="487.71301"
   viewBox="0 0 648.72699 487.71301"
   version="1.1"
   xml:space="preserve"
   style="clip-rule:evenodd;fill-rule:evenodd;stroke-linejoin:round;stroke-miterlimit:2"
   id="svg6"
   xmlns="http://www.w3.org/2000/svg"
   xmlns:svg="http://www.w3.org/2000/svg">
    <path
   d="M 182.361,0 C 112.361,25.75 84.708,86.986 74.031,114.389 60.27,149.711 58,167.693 0,193.693 c 14.5,11 64.127,48.477 67.961,53.977 1.917,2.75 2.56,4.417 3.238,9.519 0.679,5.103 0.854,13.228 1.19,24.918 0.667,23.235 0.77,28.098 9.845,46.579 7.254,14.77 29.2,47.638 78.95,69.888 -20.557,-38.063 -18.792,-93.363 -10.237,-101.918 7.235,-7.234 32.563,4.977 49.004,11.254 5.367,2.049 47.229,16.572 49.619,18.615 3.372,2.882 18.264,32.137 17.45,35.176 -0.773,2.882 -7.588,12.65 -10.303,14.43 -2.762,1.81 -49.797,8.449 -53.115,9.541 -9.952,3.275 -25.362,34.055 -25.481,46.865 89.601,-10.139 113.941,25.077 146.242,55.176 32.302,-30.099 56.642,-65.315 146.242,-55.176 -0.118,-12.81 -15.528,-43.59 -25.48,-46.865 -3.318,-1.092 -50.354,-7.731 -53.115,-9.541 -2.715,-1.78 -9.531,-11.548 -10.303,-14.43 -0.814,-3.039 14.078,-32.294 17.449,-35.176 2.391,-2.043 44.253,-16.566 49.619,-18.615 16.441,-6.277 41.77,-18.488 49.004,-11.254 8.556,8.555 10.321,63.855 -10.236,101.918 49.75,-22.25 71.696,-55.118 78.949,-69.888 9.076,-18.481 9.179,-23.344 9.846,-46.579 0.336,-11.69 0.511,-19.815 1.189,-24.918 0.679,-5.102 1.322,-6.769 3.239,-9.519 3.834,-5.5 53.461,-42.977 67.961,-53.977 -58,-26 -60.27,-43.982 -74.032,-79.304 C 564.019,86.986 536.365,25.75 466.365,0 c 30.25,60 22.108,105.408 11.192,127.578 -7.082,-8.334 -15.454,-15.538 -27.836,-19.234 -6.418,31.615 -23.612,50.117 -38.963,53.781 l -5.666,-7.055 10.724,-52.527 c 0,0 -37.606,-58.382 -41.529,-61.691 C 370.88,37.977 350.01,29.91 350.01,29.91 v 63.332 c 1.094,7.223 0.721,13.519 -2.651,17.922 -7.523,-1.604 -15.272,-2.566 -22.996,-2.566 -7.723,0 -15.472,0.962 -22.996,2.566 -3.372,-4.403 -3.744,-10.699 -2.65,-17.922 V 29.91 c 0,0 -20.87,8.067 -24.278,10.942 -3.922,3.309 -41.529,61.691 -41.529,61.691 l 10.725,52.527 -5.666,7.055 c -15.352,-3.664 -32.545,-22.166 -38.963,-53.781 -12.382,3.696 -20.754,10.9 -27.836,19.234 C 160.254,105.408 152.111,60 182.361,0 Z"
   style="fill-rule:nonzero"
   id="path1" />
    <path
   d="M 151.391,34.385 C 112.809,64.97 99.848,93.579 89.406,120.379 78.912,147.313 71.822,172.95 30.779,196.49 c 59.101,44.034 56.776,38.9 58.104,85.145 0.904,31.472 7.128,47.888 41.193,80.14 -6.146,-89.529 8.525,-94.95 75.76,-69.279 8.234,3.144 46.791,15.571 54.199,21.07 8.632,6.408 24.307,44.313 24.307,49 0,5.337 -15.276,26.136 -17.912,28.163 -2.674,2.054 -49.524,7.669 -55.051,9.837 -4.461,1.75 -10.043,11.701 -8.404,13.713 57.135,-0.772 92.492,21.486 121.388,50.028 28.897,-28.542 64.253,-50.8 121.389,-50.028 1.638,-2.012 -3.943,-11.963 -8.404,-13.713 -5.528,-2.168 -52.378,-7.783 -55.051,-9.837 -2.636,-2.027 -17.912,-22.826 -17.912,-28.163 0,-4.687 15.675,-42.592 24.306,-49 7.408,-5.499 45.966,-17.926 54.2,-21.07 67.234,-25.671 81.906,-20.25 75.759,69.279 34.065,-32.252 40.29,-48.668 41.194,-80.14 1.328,-46.245 -0.998,-41.111 58.103,-85.145 -41.042,-23.54 -48.133,-49.177 -58.627,-76.111 -10.441,-26.8 -23.402,-55.409 -61.984,-85.994 12.672,52.705 5.709,92.574 -18.385,121.24 l -19.092,-23.717 c -16.389,37.795 -35.451,41.388 -54.093,50.352 l -18.403,-22.912 11.125,-54 -31.625,-46 v 44.5 l -8.482,27.65 c -10.859,-4.172 -22.385,-6.4 -34.018,-6.4 -11.633,0 -23.158,2.228 -34.017,6.4 l -8.483,-27.65 v -44.5 l -31.625,46 11.125,54 -18.402,22.912 c -18.642,-8.964 -37.704,-12.557 -54.094,-50.352 l -19.092,23.717 C 145.682,126.959 138.719,87.09 151.391,34.385 Z m 136.384,164.478 c 5.758,0.365 12.904,6.551 19.409,20.158 -4.877,15.946 1.264,51.418 5.343,78.499 -23.533,-28.325 -36.017,-63.692 -36.017,-79.791 0,-12.216 4.741,-19.279 11.265,-18.866 z m 73.176,0 c 6.525,-0.413 11.266,6.65 11.266,18.866 0,16.099 -12.485,51.466 -36.018,79.791 4.079,-27.081 10.22,-62.553 5.344,-78.499 6.504,-13.607 13.651,-19.793 19.408,-20.158 z"
   style="fill:url(#_Linear1);fill-rule:nonzero"
   id="path2" />
    <defs
   id="defs6">
        <linearGradient
   id="_Linear1"
   x1="0"
   y1="0"
   x2="1"
   y2="0"
   gradientUnits="userSpaceOnUse"
   gradientTransform="matrix(587.168,0,0,587.168,30.7793,196.49)"><stop
     offset="0"
     style="stop-color:rgb(97,44,117);stop-opacity:1"
     id="stop2" /><stop
     offset="0.3"
     style="stop-color:rgb(123,81,144);stop-opacity:1"
     id="stop3" /><stop
     offset="0.5"
     style="stop-color:rgb(191,153,195);stop-opacity:1"
     id="stop4" /><stop
     offset="0.7"
     style="stop-color:rgb(123,81,144);stop-opacity:1"
     id="stop5" /><stop
     offset="1"
     style="stop-color:rgb(97,44,117);stop-opacity:1"
     id="stop6" /></linearGradient>
    </defs>
</svg>

<?xml version="1.0" encoding="UTF-8" standalone="no"?>
<!DOCTYPE svg PUBLIC "-//W3C//DTD SVG 1.1//EN" "http://www.w3.org/Graphics/SVG/1.1/DTD/svg11.dtd">
<svg width="100%" height="100%" viewBox="0 0 649 488" version="1.1" xmlns="http://www.w3.org/2000/svg" xmlns:xlink="http://www.w3.org/1999/xlink" xml:space="preserve" xmlns:serif="http://www.serif.com/" style="fill-rule:evenodd;clip-rule:evenodd;stroke-linejoin:round;stroke-miterlimit:2;">
    <path d="M182.361,0C112.361,25.75 84.708,86.986 74.031,114.389C60.27,149.711 58,167.693 0,193.693C14.5,204.693 64.127,242.17 67.961,247.67C69.878,250.42 70.521,252.087 71.199,257.189C71.878,262.292 72.053,270.417 72.389,282.107C73.056,305.342 73.159,310.205 82.234,328.686C89.488,343.456 111.434,376.324 161.184,398.574C140.627,360.511 142.392,305.211 150.947,296.656C158.182,289.422 183.51,301.633 199.951,307.91C205.318,309.959 247.18,324.482 249.57,326.525C252.942,329.407 267.834,358.662 267.02,361.701C266.247,364.583 259.432,374.351 256.717,376.131C253.955,377.941 206.92,384.58 203.602,385.672C193.65,388.947 178.24,419.727 178.121,432.537C267.722,422.398 292.062,457.614 324.363,487.713C356.665,457.614 381.005,422.398 470.605,432.537C470.487,419.727 455.077,388.947 445.125,385.672C441.807,384.58 394.771,377.941 392.01,376.131C389.295,374.351 382.479,364.583 381.707,361.701C380.893,358.662 395.785,329.407 399.156,326.525C401.547,324.482 443.409,309.959 448.775,307.91C465.216,301.633 490.545,289.422 497.779,296.656C506.335,305.211 508.1,360.511 487.543,398.574C537.293,376.324 559.239,343.456 566.492,328.686C575.568,310.205 575.671,305.342 576.338,282.107C576.674,270.417 576.849,262.292 577.527,257.189C578.206,252.087 578.849,250.42 580.766,247.67C584.6,242.17 634.227,204.693 648.727,193.693C590.727,167.693 588.457,149.711 574.695,114.389C564.019,86.986 536.365,25.75 466.365,0C496.615,60 488.473,105.408 477.557,127.578C470.475,119.244 462.103,112.04 449.721,108.344C443.303,139.959 426.109,158.461 410.758,162.125L405.092,155.07L415.816,102.543C415.816,102.543 378.21,44.161 374.287,40.852C370.88,37.977 350.01,29.91 350.01,29.91L350.01,93.242C351.104,100.465 350.731,106.761 347.359,111.164C339.836,109.56 332.087,108.598 324.363,108.598C316.64,108.598 308.891,109.56 301.367,111.164C297.995,106.761 297.623,100.465 298.717,93.242L298.717,29.91C298.717,29.91 277.847,37.977 274.439,40.852C270.517,44.161 232.91,102.543 232.91,102.543L243.635,155.07L237.969,162.125C222.617,158.461 205.424,139.959 199.006,108.344C186.624,112.04 178.252,119.244 171.17,127.578C160.254,105.408 152.111,60 182.361,0Z" style="fill-rule:nonzero;"/>
    <path d="M151.391,34.385C112.809,64.97 99.848,93.579 89.406,120.379C78.912,147.313 71.822,172.95 30.779,196.49C89.88,240.524 87.555,235.39 88.883,281.635C89.787,313.107 96.011,329.523 130.076,361.775C123.93,272.246 138.601,266.825 205.836,292.496C214.07,295.64 252.627,308.067 260.035,313.566C268.667,319.974 284.342,357.879 284.342,362.566C284.342,367.903 269.066,388.702 266.43,390.729C263.756,392.783 216.906,398.398 211.379,400.566C206.918,402.316 201.336,412.267 202.975,414.279C260.11,413.507 295.467,435.765 324.363,464.307C353.26,435.765 388.616,413.507 445.752,414.279C447.39,412.267 441.809,402.316 437.348,400.566C431.82,398.398 384.97,392.783 382.297,390.729C379.661,388.702 364.385,367.903 364.385,362.566C364.385,357.879 380.06,319.974 388.691,313.566C396.099,308.067 434.657,295.64 442.891,292.496C510.125,266.825 524.797,272.246 518.65,361.775C552.715,329.523 558.94,313.107 559.844,281.635C561.172,235.39 558.846,240.524 617.947,196.49C576.905,172.95 569.814,147.313 559.32,120.379C548.879,93.579 535.918,64.97 497.336,34.385C510.008,87.09 503.045,126.959 478.951,155.625L459.859,131.908C443.47,169.703 424.408,173.296 405.766,182.26L387.363,159.348L398.488,105.348L366.863,59.348L366.863,103.848L358.381,131.498C347.522,127.326 335.996,125.098 324.363,125.098C312.73,125.098 301.205,127.326 290.346,131.498L281.863,103.848L281.863,59.348L250.238,105.348L261.363,159.348L242.961,182.26C224.319,173.296 205.257,169.703 188.867,131.908L169.775,155.625C145.682,126.959 138.719,87.09 151.391,34.385ZM287.775,198.863C293.533,199.228 300.679,205.414 307.184,219.021C302.307,234.967 308.448,270.439 312.527,297.52C288.994,269.195 276.51,233.828 276.51,217.729C276.51,205.513 281.251,198.45 287.775,198.863ZM360.951,198.863C367.476,198.45 372.217,205.513 372.217,217.729C372.217,233.828 359.732,269.195 336.199,297.52C340.278,270.439 346.419,234.967 341.543,219.021C348.047,205.414 355.194,199.228 360.951,198.863Z" style="fill:url(#_Linear1);fill-rule:nonzero;"/>
    <defs>
        <linearGradient id="_Linear1" x1="0" y1="0" x2="1" y2="0" gradientUnits="userSpaceOnUse" gradientTransform="matrix(587.168,0,0,587.168,30.7793,196.49)"><stop offset="0" style="stop-color:rgb(97,44,117);stop-opacity:1"/><stop offset="0.3" style="stop-color:rgb(123,81,144);stop-opacity:1"/><stop offset="0.5" style="stop-color:rgb(191,153,195);stop-opacity:1"/><stop offset="0.7" style="stop-color:rgb(123,81,144);stop-opacity:1"/><stop offset="1" style="stop-color:rgb(97,44,117);stop-opacity:1"/></linearGradient>
    </defs>
</svg>
